X: 228
T:Gaelic Waltz. CJF.228
M:3/8
L:1/16
Q:40
S:C.J.Fox MS, 1829/33, Beverley,E.Yorks.
R:Waltz
O:England
A:East Yorkshire
B:Kidson Coll.Mitchell Lib.M1805
N:Just "Waltz" in MS..my title... CGP
Z:vmp.P J Headford 2000
K:F
c2|f3gag|(f2c2)c2|{e/}d2defe|c4ac'|!
d'b g2g2|ba f2f2|edefge|f4:|!
|:cB|Acfcf2|efgec2|gababg|a2f2f2|!Acfcf2|efgec2|fefage|f4:|!
|:F2|F4F2|Af3e2|{e/}d4c2|A4A2|B4c2|\
d2B2G2|F2E2d2|c2B2G2|!
F4G2|Af3e2|e2d2c2|{B/}A4A2|B4c2|\
{e/}d2{c/}B2{A/}G2|F2{G/F/}E2G2|F4c2|!
f4e2|cf3d2|c4f2|ec3c2|d4f2|f2e2d2|c4B2|c2B2A2|!
F4G2|Af3e2|\
e2d2c2|{B/}A4A2|B4c2|d2B2G2|F2{G/F/}E2G2|F4|]
